X:1
T:[ID 1-138a]
T:[ID 1-138a]
T:Bezeichnung standardisiert: Menuett Menuet
T:Urheber unbekannt Erstbeleg: vor 1767 (Datum in der schriftlichen Quelle) Datum in der hier transkribierten schriftlichen Quelle: 1776 - 1791
C:Urheber unbekannt
C:Erstbeleg: vor 1767 (Datum in der schriftlichen Quelle)
C:Datum in der hier transkribierten schriftlichen Quelle: 1776 - 1791
%%score 1 2
L:1/8
M:3/4
K:G
V:1 treble 
V:2 treble nm="Secondo"
V:1
 g2 ga g2 | d2 de d2 | G2 (3GAB (3GAB | D4 D2 | TG3 BAc | TB3 dce | d2 edcB |{B} A6 :: df a2 ab | %9
 a2 f2 d2 | eg b2 bc' | b2 g2 d2 | Td3 cBc | d2 efgd | (3edc B2 TA2 |{A} G6 :| %16
V:2
 !fermata!d2 d2 d2 | B2 B2 B2 | E2 (3EFG (3EFG | D4 D2 | TE3 GFA | TG3 BAc | B2 cBAG |{G} F6 :: %8
 Fd f2 f2 | f2 d2 A2 | Ad g2 g2 | g2 e2 B2 | TB3 AGA | B2 cAdB | (3cBA D2 C2 |{C} B,6 :| %16

